public/images/synthetix-logo.svg

<svg width="256" height="256" viewBox="0 0 256 256" fill="none" xmlns="http://www.w3.org/2000/svg">
	<path
		d="M65.987 82.6095C64.309 80.6832 62.243 79.7178 59.7846 79.7178H9.50663C9.06005 79.7178 8.69467 79.576 8.41951 79.2923C8.13984 79.0132 8 78.6975 8 78.3589V44.3589C8 44.0203 8.13984 43.7092 8.41951 43.4255C8.69467 43.1418 9.06005 43 9.50663 43H62.6355C76.0417 43 87.6076 48.4997 97.3285 59.4898L110.234 75.2979L85.095 106.068L65.987 82.6095ZM158.838 59.3205C168.559 48.4402 180.179 43 193.698 43H246.66C247.107 43 247.441 43.1144 247.666 43.3386C247.887 43.5674 248 43.9059 248 44.3589V78.3589C248 78.6975 247.887 79.0132 247.666 79.2923C247.441 79.576 247.107 79.7178 246.66 79.7178H196.382C193.924 79.7178 191.858 80.6832 190.18 82.6095L153.141 127.828L190.347 173.386C192.025 175.202 194.032 176.108 196.382 176.108H246.66C247.107 176.108 247.441 176.25 247.666 176.534C247.887 176.818 248 177.188 248 177.637V211.637C248 211.975 247.887 212.291 247.666 212.57C247.441 212.854 247.107 212.995 246.66 212.995H193.698C180.179 212.995 168.613 207.5 159.005 196.506L128.169 158.767L97.3285 196.506C87.6076 207.5 75.9876 212.995 62.4686 212.995H9.50663C9.06005 212.995 8.72174 212.854 8.5007 212.57C8.27516 212.286 8.1669 211.92 8.1669 211.463V177.463C8.1669 177.124 8.27516 176.813 8.5007 176.529C8.72174 176.246 9.06005 176.104 9.50663 176.104H59.7846C62.1303 176.104 64.1962 175.143 65.987 173.212L102.354 128.675L158.838 59.3205Z"
		fill="#00D1FF" />
</svg>

<svg viewBox="0 0 256 256" fill="none" xmlns="http://www.w3.org/2000/svg">
    <path d="M65.987 82.61c-1.678-1.927-3.744-2.892-6.202-2.892H9.507c-.447 0-.812-.142-1.087-.426-.28-.279-.42-.594-.42-.933v-34c0-.339.14-.65.42-.934.275-.283.64-.425 1.087-.425h53.129c13.406 0 24.972 5.5 34.693 16.49l12.905 15.808-25.139 30.77-19.108-23.459zm92.851-23.29C168.559 48.44 180.179 43 193.698 43h52.962c.447 0 .781.114 1.006.339.221.228.334.567.334 1.02v34c0 .339-.113.654-.334.933-.225.284-.559.426-1.006.426h-50.278c-2.458 0-4.524.965-6.202 2.891l-37.039 45.219 37.206 45.558c1.678 1.816 3.685 2.722 6.035 2.722h50.278c.447 0 .781.142 1.006.426.221.284.334.654.334 1.103v34c0 .338-.113.654-.334.933-.225.284-.559.425-1.006.425h-52.962c-13.519 0-25.085-5.495-34.693-16.489l-30.836-37.739-30.84 37.739c-9.721 10.994-21.341 16.489-34.86 16.489H9.507c-.447 0-.785-.141-1.006-.425-.226-.284-.334-.65-.334-1.107v-34c0-.339.108-.65.334-.934.22-.283.56-.425 1.006-.425h50.278c2.345 0 4.411-.961 6.202-2.892l36.367-44.537 56.484-69.355z" fill="#00D1FF"/>
</svg>
